X:1
T:Close thine eyes
T:Henry Purcell
T:Close thine eyes
C:Henry Purcell
%%score [ 1 2 ] { ( 3 4 ) | ( 5 6 ) }
L:1/8
Q:1/4=120
M:4/4
K:Eb
V:1 treble nm="Soprano" snm="S"
V:2 bass nm="Bass" snm="B"
V:3 treble nm="Harmonium" snm="Hrmn."
V:4 treble 
V:5 bass 
V:6 bass 
V:1
 z2 G4 F>G | E D/C/ A2- AG G2- | GA GF G4 | z =B B>B c3 c | d2 e2 e3 d | e2 g4 f>g | %6
w: Close * thine|eyes and * sleep, * * sleep|* * se- * cure;|Thy soul is safe, is|safe, thy bo- dy|sure, Close * thine|
 e d/c/ e2 =e2- e/f/ g/f/ | f3 d g4- | gc ed =BB d2- | dG c4 d2 | B3 =A/G/ G4 | z2 B<E BB e<d | %12
w: eyes and * sleep * * * se- *|cure; and sleep|* * se- * cure; Thy soul|* is safe, thy|bo- dy * sure;|He that guards thee, he thee|
 e3 e e<d fe | d c/B/ B<F B4 | z2 e<B ee e>f | g>B e<d cB_dc | B2 AG F3 D | E2 z B B2 =B>B | %18
w: keeps, Who nev- er slum- *|* bers, * nev- er sleeps,|He that guards thee, he thee|keeps, Who nev- er slum- * * *|* * bers, nev- er|sleeps. A qui- * et|
 cccc d3 e | =B2 z g g2 f>f | f2 =e>d d2 _e d/c/ | d6- d>d | dc d/4e/4f/ e/d/ =B2 ed | %23
w: con- science in a qui- et|breast Has on- * ly|peace, * has on- * ly *|rest, * Has|on- ly, on- * * ly * peace, has *|
 c =B2 c c3 c ||[M:3/4] =e>fe>fg>f | =e>f d2 e>f | =e2 dc e>e | f<c B3 =A | =A3 c c>c | c2 _d2 cB | %30
w: on- * ly rest: The|mu- * * * * *||* sic * and the|mirth * * of|kings Are out of|tune * un- *|
 B4 =A2 ||[M:4/4] B2 z B B2 AG/A/ | G3 c c2 B>B | B=E GA G/A/B A G/F/ | F2 z f d3 d | %35
w: less she|sings; Then close * * thine|eyes in peace, * in|peace, * and * rest * * * se- *|cure, No sleep so|
 d<ef<=B c2 z c | =A3 A A<Bc<^F | G3 =A ^F2 z f | d3 d d<ef/=Bg/ | e3 =e fg ag | =B2 c>d e<d c>B | %41
w: sweet, * * * * no|sleep so sweet * * *|* as thine, no|sleep so sweet, * * * no|sleep so sweet * as *|thine, no * rest * * so|
 c8 |] %42
w: sure.|
V:2
 z8 | z8 | z4 z2 G,2- | G,2 F,>G, E, D,/C,/ A,2- | A,G, G,3 A,/G,/ F,>E, | E,>E, =E,E, F,3 F, | %6
w: ||Close|* * thine eyes and * sleep,|* * sleep * * * se-|cure; Thy soul is safe, is|
 F,<C, C4 B,>C | A, G,/F,/ B,2- B,A, B,<G, | A,2 G,F, G,3 F, | E,3 C, D,2 =B,,2 | D,3 D, G,,4 | %11
w: safe, * Close * thine|eyes and * sleep, * * and *|sleep se- * cure; Thy|soul is safe, thy|bo- dy sure;|
 z4 z2 E,<B,, | E,E, G,>=A, B,2 B,<F, | B,B, B,>C DD E<B, | _DCB,A, G, F,/E,/ E,<B,, | %15
w: He that|guards thee, he thee keeps, He that|guards thee, he thee keeps, Who nev- er|slum- * * * * bers, * nev- er|
 E,3 E, A,<G, F,E, | D,2 E,G,, B,,3 B,, | E,,2 z E, E,2 D,>D, | C,C,C,B,, A,,3 G,, | G,,4 z4 | %20
w: sleeps, Who nev- er slum- *|* * bers, nev- er|sleeps. A qui- * et|con- science in a qui- et|breast|
 z2 z C C4- | C2 =B,>B, _B,2 =A,>G, | A,2 G,>A, G,2 C,2 | G,,3 G,, C,3 C, ||[M:3/4] C>DC>D=E>D | %25
w: Has on-|* * ly peace, * has|on- * ly rest, has|on- ly rest: The|mu- * * * * *|
 C>D =B,2 C>D | C2 C,2 C>B, | =A,/G,/F, =E,2 D,C, | F,3 F, F,>F, | B,4 _D,2 | F,4 F,,2 || %31
w: |* sic and the|mirth * * * of *|kings Are out of|tune un-|less she|
[M:4/4] B,,2 z B,, C,2 D,>D, | E,3 E, E, _D,2 D, | C,2 B,,2 C,3 C, | F,,4 z2 z B, | %35
w: sings; Then close * thine|eyes in peace, * in|peace, and rest se-|cure, No|
 G,3 G, G,<A,B,<=E, | F,>G,F,>D, E,3 D, | C,>B,, C,2 D,2 z D | =B,3 B, B,<CD<G, | %39
w: sleep so sweet * * *||* * as thine, no|sleep so sweet * * *|
 A,>B,A,>G,F,>E, F,2 | G,3/2 F,/E,/D,/C, G,,3 G,, | C,8 |] %42
w: * * * * * * as|thine, no * * * rest so|sure.|
V:3
 [CE]4 D4 | E3 F/E/ D4 | C4 =B,3 [=A,C] | [=B,D]4 [CE]2 [A,F-]2 | F2 B2 c2 B2 | %5
 [EG]2 G/4A/4Bc/ A3 A | G3 F [C=E]G c2- | c2 d2- df e2- | e2 EF G4- | GF E2 F/G/A G2- | G2 ^F2 D4 | %11
 [G,B,E]6 [B,F]2 | [EG]4 F2 dc | BFfe d>c BA/G/ | F2 BA GA B2 | [B,EG]4 [A,CE]4 | D2 E4 D2 | %17
 E3 F GA/G/ F>G | AB/A/ G4 F2 | G2 [D=B]2 [Cc]2 [Fd]2 | [Gc]3 B/A/ GFEA | Gdef gd c2- | %22
 [Fc]4 [G=B]2 [EG]2 | [DG]4 E2- E3/2 z/ ||[M:3/4] c<G- G>G c>d | =e>f d>=A G>F | G/F/=E G2 [Fc-]2 | %27
 c2 B3 =A | =A4 C2 | C2 _DE F2- | F6- ||[M:4/4] F2 D2 E2 F2 | GA/B/ c4 Bf | %33
 [B=e]2 [_df-]2 [c-f]2 [c-e]2 | [cf]FGA Bc d2- | [=Bd]4 [Gc-]4 | [=Ac]4 f2 ^f2 | %37
 [Bg]3 [c=a] ^f3 =f | [=Bd][=Ac] B4 d2 | c3 B A2 d2 | [G=B]2 [Gc]4 c>B | [EGc]8 |] %42
V:4
 G,8- | G,F, E,2 F, G,2 A,/B,/ | C2 C,2 D,4 | G,4 G,2 F,2- | F,2 G,4 F,2 | B,2 C2- CC F2 | %6
 z G, C2- CG _E2 | FG/A/ BF G3 B | c2 CD- D2 =B,2 | G,4 D4 | B,C D2 B,4 | G,6 E<D | B,4 E<D FE | %13
 DFdc B>c GA/G/ | F2 E4- ED | x8 | B,8 | [G,B,]3 F B,2 =B,D | E3 D- D3 E | [=B,D]2 G4 F2 | %20
 z G, C2 C4- | [DG]4- [DG]3 G | D2 C2 D2 C2 | C =B,2 C [G,C]2- [G,C]>G ||[M:3/4] =E4 E>F | %25
 G2- G>=A G>F | x6 | F=A- A2 G2 | z C F2 =A,2 | F,4- F,B, | _D2 ED C2 ||[M:4/4] B,2 [F,B,]2 B,4 | %32
 E3 G F4 | G3 A G2 AG | FF C2 D2- D/E/F | G4 C4 | F4 [_Ac]4 | e4 [=Ad]4 | G2 G4 =B2 | E3 =E [FA]4 | %40
 D2 E4 [DG]2 | x8 |] %42
V:5
 C,4 =B,,4 | C,4 B,,4 | A,,4 G,,4- | G,,4 C,2 F,,2 | B,,2 G,,2 A,,2 B,,2 | E,2 =E,2 F,4 | C,8 | %7
w: |||||||
 F,2 B,,2 E,4 | A,,4 G,,4 | C,4 D,2 =B,,2 | D,2 D,,2 G,,2 G,F, | E,6 B,,2 | E,4 B,2 F,2 | %13
w: ||||||
 B,,6 E,2 | B,,2 G,,2 C,2 B,,2 | E,4 A,,4 | F,2 E,2 F,4 | z B,, E,2 E,2 D,2 | x8 |"^6" x8 | x8 | %21
w: ||||||||
 x8 | x8 | x8 ||[M:3/4] C,6- | C,6- | C,6 | D,2 =E,4 | F,6 | B,,6 | F,,6 ||[M:4/4] x8 | x8 | %33
w: ||||||||b3||||
"^6" x8 | x8 | D4 G,4 | C8- | C2 C,2 =A,4 | x8 | x8 | x8 | x8 |] %42
w: |||||||||
V:6
 x8 | x8 | x8 | x8 | x8 | x8 | x8 | x8 | x8 | x8 | x8 | x8 | x8 | x8 | x8 | x8 | B,,8 | %17
w: |||||||||||||||||
 E,,4 E,2 D,2 | C,3"^5" B,, A,,4 | G,,4 =A,,2 =B,,2 | C,4 C4- | C2 =B,2 _B,2 =A,2 | A,4 G,2 C,2 | %23
w: |b6 * 7|||||
 G,,4 C,4 ||[M:3/4] x6 | x6 | x6 | x6 | x6 | x6 | x6 ||[M:4/4] B,,4 C,2 D,2 | E,4"^6" _D,4 | %33
w: |||||||||5 7|
 C,2 B,,2 C,4 | F,,4 B,,2 B,2 | G,4 =E,4 | F,4"^4" E,4 | C,4 D,4 | G,8 | A,4 F,4 | G,2 C,2 G,,4 | %41
w: 7 b7 *|||* 6|||||
 [C,G,]8 |] %42
w: |

